X: 10197
T: Diplodocus, The
R: jig
M: 6/8
K: Dmajor
|:B|cAA edb|cAA ABc|dff gfg|aee fed|
cAA BAG|Eaa AGE|DFF GFG|BAA A2:|
e|efe eed|cAB AGE|GGG EFG|GAG FDD|
efe eed|cAB AGE|DFF GFG|BAA A2 e|
efe eed|cAB AGE|fgg gef|gag fdd|
efe eed|cAB AGE|DFF GFG|BAA efg|
aAA Aaf|gfg efg|fdd def|gfg efd|
aAA Aaf|gfg efg|fdd fed|cAA Afg|
aAA Aaf|gfg efg|GGG GBd|gfg efd|
aAA Aaf|gfg efg|fdd fed|cAA A2|

